icons/Spark_2.svg

<svg width="24" height="24" viewBox="0 0 24 24" fill="none" xmlns="http://www.w3.org/2000/svg">
<path fill-rule="evenodd" clip-rule="evenodd" d="M15.6429,4.53128c0.0491,0.15516 0.1707,0.27671 0.3258,0.32582l0.5252,0.16622c0.4655,0.14734 0.4655,0.80605 0,0.95339l-0.5252,0.16622c-0.1551,0.04911 -0.2767,0.17066 -0.3258,0.32582l-0.1662,0.52518c-0.1473,0.46549 -0.8061,0.46549 -0.9534,0l-0.1662,-0.52518c-0.0491,-0.15516 -0.1707,-0.27671 -0.3258,-0.32582l-0.5252,-0.16622c-0.4655,-0.14733 -0.4655,-0.80605 0,-0.95339l0.5252,-0.16622c0.1551,-0.04911 0.2767,-0.17066 0.3258,-0.32582l0.1662,-0.52518c0.1473,-0.46549 0.8061,-0.46549 0.9534,0zM10.5,6.25004c0.308,0 0.5847,0.1883 0.6977,0.47483l1.719,4.35853l4.3585,1.7189c0.2865,0.113 0.4748,0.3897 0.4748,0.6977c0,0.308 -0.1883,0.5847 -0.4748,0.6977l-4.3585,1.719l-1.719,4.3585c-0.113,0.2865 -0.3897,0.4748 -0.6977,0.4748c-0.308,0 -0.58469,-0.1883 -0.6977,-0.4748l-1.71897,-4.3585l-4.3585,-1.719c-0.28652,-0.113 -0.47483,-0.3897 -0.47483,-0.6977c0,-0.308 0.18831,-0.5847 0.47483,-0.6977l4.3585,-1.7189l1.71897,-4.35853c0.11301,-0.28653 0.3897,-0.47483 0.6977,-0.47483zM10.5,9.04424l-1.14078,2.89246c-0.07623,0.1933 -0.22924,0.3463 -0.42253,0.4226l-2.89248,1.1407l2.89248,1.1408c0.19329,0.0763 0.3463,0.2293 0.42253,0.4225l1.14078,2.8925l1.1408,-2.8925c0.0762,-0.1932 0.2292,-0.3462 0.4225,-0.4225l2.8925,-1.1408l-2.8925,-1.1407c-0.1933,-0.0763 -0.3463,-0.2293 -0.4225,-0.4226zM18.5233,8.5061c0.1473,-0.46549 0.8061,-0.46549 0.9534,0l0.1662,0.52518c0.0491,0.15516 0.1707,0.27671 0.3258,0.32582l0.5252,0.16622c0.4655,0.14734 0.4655,0.80608 0,0.95338l-0.5252,0.1662c-0.1551,0.0491 -0.2767,0.1707 -0.3258,0.3258l-0.1662,0.5252c-0.1473,0.4655 -0.8061,0.4655 -0.9534,0l-0.1662,-0.5252c-0.0491,-0.1551 -0.1707,-0.2767 -0.3258,-0.3258l-0.5252,-0.1662c-0.4655,-0.1473 -0.4655,-0.80604 0,-0.95338l0.5252,-0.16622c0.1551,-0.04911 0.2767,-0.17066 0.3258,-0.32582z" fill="#002B51"/>
</svg>

<svg width="24" height="24" viewBox="0 0 24 24" fill="none" xmlns="http://www.w3.org/2000/svg">
<path fill-rule="evenodd" clip-rule="evenodd" d="M15.4767 4.0061C15.3294 3.54061 14.6706 3.54061 14.5233 4.0061L14.3571 4.53128C14.308 4.68644 14.1864 4.80799 14.0313 4.8571L13.5061 5.02332C13.0406 5.17066 13.0406 5.82938 13.5061 5.97671L14.0313 6.14293C14.1864 6.19204 14.308 6.31359 14.3571 6.46875L14.5233 6.99393C14.6706 7.45942 15.3294 7.45942 15.4767 6.99393L15.6429 6.46875C15.692 6.31359 15.8136 6.19204 15.9687 6.14293L16.4939 5.97671C16.9594 5.82937 16.9594 5.17066 16.4939 5.02332L15.9687 4.8571C15.8136 4.80799 15.692 4.68644 15.6429 4.53128L15.4767 4.0061ZM10.5 6.25004C10.808 6.25004 11.0847 6.43834 11.1977 6.72487L12.9167 11.0834L17.2752 12.8023C17.5617 12.9153 17.75 13.192 17.75 13.5C17.75 13.808 17.5617 14.0847 17.2752 14.1977L12.9167 15.9167L11.1977 20.2752C11.0847 20.5617 10.808 20.75 10.5 20.75C10.192 20.75 9.91531 20.5617 9.8023 20.2752L8.08333 15.9167L3.72483 14.1977C3.43831 14.0847 3.25 13.808 3.25 13.5C3.25 13.192 3.43831 12.9153 3.72483 12.8023L8.08333 11.0834L9.8023 6.72487C9.91531 6.43834 10.192 6.25004 10.5 6.25004ZM10.5 9.04424L9.35922 11.9367C9.28299 12.13 9.12998 12.283 8.93669 12.3593L6.04421 13.5L8.93669 14.6408C9.12998 14.7171 9.28299 14.8701 9.35922 15.0633L10.5 17.9558L11.6408 15.0633C11.717 14.8701 11.87 14.7171 12.0633 14.6408L14.9558 13.5L12.0633 12.3593C11.87 12.283 11.717 12.13 11.6408 11.9367L10.5 9.04424ZM18.5233 8.5061C18.6706 8.04061 19.3294 8.04061 19.4767 8.5061L19.6429 9.03128C19.692 9.18644 19.8136 9.30799 19.9687 9.3571L20.4939 9.52332C20.9594 9.67066 20.9594 10.3294 20.4939 10.4767L19.9687 10.6429C19.8136 10.692 19.692 10.8136 19.6429 10.9687L19.4767 11.4939C19.3294 11.9594 18.6706 11.9594 18.5233 11.4939L18.3571 10.9687C18.308 10.8136 18.1864 10.692 18.0313 10.6429L17.5061 10.4767C17.0406 10.3294 17.0406 9.67066 17.5061 9.52332L18.0313 9.3571C18.1864 9.30799 18.308 9.18644 18.3571 9.03128L18.5233 8.5061Z" fill="#002B51"/>
</svg>
